website/public/images/sponsors/2024-mantel-group.svg

<svg width="799.933208px" height="288.433413px" viewBox="0 0 799.933208 288.433413" version="1.1" xmlns="http://www.w3.org/2000/svg" xmlns:xlink="http://www.w3.org/1999/xlink">
    <g id="Page-1" stroke="none" stroke-width="1" fill="none" fill-rule="evenodd">
        <g id="Group" fill="#FFFFFF" fill-rule="nonzero">
            <path d="M115.25,8.20318913 L115.25,122.633189 C115.350936,123.266146 115.142392,123.909134 114.689168,124.362358 C114.235945,124.815581 113.592957,125.024125 112.96,124.923189 L98.22,124.923189 C97.6147516,124.966234 97.0226891,124.732181 96.6104786,124.286916 C96.1982682,123.841651 96.0104886,123.233328 96.1,122.633189 L96.1,57.8031891 C96.1,48.6331891 96.75,34.3931891 97.41,25.3831891 L96.75,25.3831891 L70.56,122.013189 C70.07,124.013189 69.08,125.013189 66.96,125.013189 L52.88,125.013189 C50.75,125.013189 49.77,123.863189 49.28,122.013189 L22.76,25.3831891 L22.26,25.3831891 C22.92,34.2331891 23.74,48.6331891 23.74,57.8031891 L23.74,122.633189 C23.8110169,123.259626 23.5926808,123.88428 23.1468859,124.330075 C22.7010911,124.77587 22.0764365,124.994206 21.45,124.923189 L6.88,124.923189 C6.28429678,124.931012 5.71304745,124.686642 5.30730041,124.250416 C4.90155337,123.814191 4.69912597,123.226768 4.75,122.633189 L4.75,8.20318913 C4.63326857,7.3470229 4.92275984,6.48542641 5.53278029,5.87344448 C6.14280074,5.26146255 7.00346345,4.96920681 7.86,5.08318913 L31.76,5.08318913 C33.5935169,4.90305217 35.2466188,6.19124062 35.52,8.01318913 L51.73,67.0131891 C55.33,80.7631891 57.95,90.2531891 60.08,102.203189 L60.57,102.203189 C62.7,90.2031891 64.99,80.5931891 68.76,66.8431891 L85,8.20318913 C85.5,6.07318913 86.64,5.08318913 88.61,5.08318913 L112.18,5.08318913 C113.022503,5.013856 113.852309,5.32211456 114.445215,5.92467647 C115.03812,6.52723838 115.332934,7.36191645 115.25,8.20318913 Z" id="Path"></path>
            <path d="M204,62.5531891 L204,122.633189 C204.0716,123.261569 203.852007,123.888203 203.403827,124.334435 C202.955647,124.780666 202.328062,124.997527 201.7,124.923189 L187.3,124.923189 C186.673564,124.994206 186.048909,124.77587 185.603114,124.330075 C185.157319,123.88428 184.938983,123.259626 185.01,122.633189 L185.01,112.013189 C179.44,121.013189 170.27,126.743189 159.14,126.743189 C142.14,126.743189 131.31,115.613189 131.31,99.4031891 C131.31,83.0331891 142.11,73.5331891 165.69,71.9031891 C171.846355,71.4430131 178.026228,71.3862251 184.19,71.7331891 L184.19,63.3731891 C184.19,53.2231891 178.62,49.1231891 169.29,49.1231891 C159.96,49.1231891 156.52,52.5631891 154.23,58.9431891 C153.57,60.7531891 152.92,61.0731891 151.12,60.5831891 L136.92,57.0131891 C135.44,56.5231891 134.92,55.7031891 135.44,54.3931891 C138.06,41.6231891 149.68,32.7831218 170.15,32.7831218 C191.27,32.7531891 204,42.7431891 204,62.5531891 Z M184.23,95.7831891 L184.23,84.6531891 C178.608597,84.4282493 172.978819,84.5351015 167.37,84.9731891 C156.72,86.1231891 150.67,89.7231891 150.67,98.2331891 C150.67,105.603189 155.74,110.353189 164.42,110.353189 C173.59,110.353189 180.63,104.953189 184.23,95.7831891 Z" id="Shape"></path>
            <path d="M242.35,67.0131891 L242.35,122.673189 C242.421017,123.299626 242.202681,123.92428 241.756886,124.370075 C241.311091,124.81587 240.686436,125.034206 240.06,124.963189 L224.51,124.963189 C222.87,124.963189 222.05,124.143189 222.05,122.673189 L222.05,36.6831891 C222.003115,36.074239 222.237045,35.4772421 222.685155,35.0622532 C223.133265,34.6472642 223.746434,34.459774 224.35,34.5531891 L239.57,34.5531891 C240.171993,34.4631693 240.782217,34.6521939 241.227912,35.0667485 C241.673607,35.4813032 241.906258,36.0762627 241.86,36.6831891 L241.86,47.6831891 C247.43,39.6831891 256.6,32.7831891 269.04,32.7831891 C286.23,32.7831891 295.56,45.2231891 295.56,63.5631891 L295.56,122.663189 C295.660936,123.296146 295.452392,123.939134 294.999168,124.392358 C294.545945,124.845581 293.902957,125.054125 293.27,124.953189 L277.71,124.953189 C276.08,124.953189 275.26,124.133189 275.26,122.663189 L275.26,67.0131891 C275.26,57.1831891 270.68,51.2931891 261.51,51.2931891 C252.83,51.2531891 245.63,57.6431891 242.35,67.0131891 Z" id="Path"></path>
            <path d="M341.09,14.5831891 L341.09,35.2131891 L359.09,35.2131891 C360.4,35.2131891 361.22,36.0331891 361.22,37.6631891 L361.22,49.4531891 C361.22,51.0931891 360.4,51.7431891 359.09,51.7431891 L341.09,51.7431891 L341.09,97.2531891 C341.09,103.803189 344.69,107.083189 352.09,107.083189 L358.97,107.083189 C359.602957,106.982253 360.245945,107.190797 360.699168,107.644021 C361.152392,108.097244 361.360936,108.740232 361.26,109.373189 L361.26,122.633189 C361.360936,123.266146 361.152392,123.909134 360.699168,124.362358 C360.245945,124.815581 359.602957,125.024125 358.97,124.923189 L348.79,124.923189 C330.45,124.923189 321.28,115.103189 321.28,100.043189 L321.28,51.7431891 L310,51.7431891 C309.367043,51.844125 308.724055,51.6355809 308.270832,51.1823575 C307.817608,50.7291341 307.609064,50.0861463 307.71,49.4531891 L307.71,37.6631891 C307.71,36.0331891 308.52,35.2131891 310,35.2131891 L321.46,35.2131891 L321.46,14.5831891 C321.418176,13.9639659 321.645978,13.3568766 322.084833,12.918022 C322.523688,12.4791674 323.130777,12.2513649 323.75,12.2931891 L338.8,12.2931891 C339.427358,12.2181768 340.054441,12.4352111 340.50121,12.8819796 C340.947978,13.3287482 341.165012,13.9558316 341.09,14.5831891 Z" id="Path"></path>
            <path d="M391.76,86.0131891 L391.76,91.2531891 C391.76,102.873189 397.81,110.073189 410.76,110.253189 C422.87,110.253189 426.64,105.503189 429.76,99.4431891 C431.07,97.3131891 431.89,96.9931891 434.01,97.9731891 L444.33,103.213189 C446.62,104.353189 446.78,105.663189 445.8,107.633189 C440.4,119.633189 427.8,126.783189 410.6,126.783189 C385.6,126.783189 372.3,111.883189 372.3,90.9331891 L372.3,68.6031891 C372.3,48.1431891 385.06,32.7531891 410.3,32.7531891 C434.52,32.7531891 446.8,48.1431891 446.8,68.2831891 L446.8,82.0131891 C446.8,84.6331891 445.8,85.9431891 442.71,85.9431891 L391.76,86.0131891 Z M391.76,67.8431891 L391.76,72.5831891 L428.1,72.5831891 L428.1,67.7931891 C428.1,56.6531891 421.88,49.2931891 409.93,49.2931891 C397.98,49.2931891 391.76,56.6531891 391.76,67.7931891 L391.76,67.8431891 Z" id="Shape"></path>
            <path d="M482.67,2.30318913 L482.67,122.633189 C482.741017,123.259626 482.522681,123.88428 482.076886,124.330075 C481.631091,124.77587 481.006436,124.994206 480.38,124.923189 L464.83,124.923189 C463.19,124.923189 462.37,124.103189 462.37,122.633189 L462.37,2.30318913 C462.37,0.833189126 463.19,0.0131891256 464.83,0.0131891256 L480.38,0.0131891256 C481.006436,-0.0578277384 481.631091,0.160508354 482.076886,0.606303181 C482.522681,1.05209801 482.741017,1.67675265 482.67,2.30318913 Z" id="Path"></path>
            <path d="M71.05,170.933189 L52.88,170.933189 C59.1,175.013189 64.34,183.213189 64.34,195.653189 C64.34,213.993189 53.04,225.283189 33.72,225.283189 L23.41,225.283189 C16.04,225.283189 12.77,229.053189 12.77,233.143189 C12.77,237.233189 16.04,240.833189 23.41,240.833189 L44,240.833189 C64.95,240.833189 72.48,251.643189 72.48,263.433189 C72.48,277.183189 62.01,288.433302 35.81,288.433302 C10.31,288.473189 0,277.833189 0,264.083189 C0,255.573189 3.93,247.713189 12.61,243.783189 C9.06398886,241.316368 6.87991065,237.329499 6.71,233.013189 C6.71,227.933189 10.48,223.013189 16.21,221.223189 C7.53,216.283189 2.78,207.113189 2.78,195.013189 C2.78,176.183189 14.24,164.883189 33.56,164.883189 L71.05,164.883189 C72.05,164.883189 72.52,165.213189 72.52,166.683189 L72.52,169.143189 C72.52,170.603189 72,170.933189 71.05,170.933189 Z M27.34,246.933189 C10.8,246.933189 6.22,254.933189 6.22,263.473189 C6.22,275.253189 15.22,282.473189 35.69,282.473189 C56.81,282.473189 66.3,274.773189 66.3,262.993189 C66.3,254.803189 61.72,246.943189 44.04,246.943189 L27.34,246.933189 Z M33.56,170.933189 C18.17,170.933189 9,179.283189 9,194.833189 C9,210.223189 17.84,219.233189 34,219.233189 C48.57,219.233189 58.070232,212.023189 58.070232,195.653189 C58.12,180.593189 50.09,170.933189 33.56,170.933189 Z" id="Shape"></path>
            <path d="M127.24,165.203189 L127.24,168.643189 C127.24,169.643189 126.91,170.113189 125.6,170.113189 L124.29,170.113189 C111.03,170.113189 102.03,178.953189 97.12,189.923189 L97.12,252.793189 C97.12,254.093189 96.3,254.093189 95.32,254.093189 L92.7,254.093189 C91.7,254.093189 90.9,254.093189 90.9,252.793189 L90.9,166.183189 C90.9,164.873189 91.72,164.873189 92.53,164.873189 L95.53,164.873189 C96.35,164.873189 97.17,164.873189 97.17,166.183189 L97,181.083189 C102.546787,170.309626 113.703195,163.593328 125.82,163.733189 C126.75,163.733189 127.24,164.063189 127.24,165.203189 Z" id="Path"></path>
            <path d="M205.34,196.143189 L205.34,222.833189 C205.34,242.963189 193.34,255.733189 172.11,255.733189 C150.88,255.733189 138.88,242.963189 138.88,222.833189 L138.88,196.143189 C138.88,176.013189 150.88,163.243189 172.11,163.243189 C193.34,163.243189 205.34,176.013189 205.34,196.143189 Z M145.1,196.473189 L145.1,222.473189 C145.1,240.803189 155.58,249.643189 172.1,249.643189 C188.62,249.643189 199.1,240.803189 199.1,222.473189 L199.1,196.473189 C199.1,178.133189 188.62,169.293189 172.1,169.293189 C155.58,169.293189 145.1,178.133189 145.1,196.473189 Z" id="Shape"></path>
            <path d="M226.83,228.073189 L226.83,166.353189 C226.83,165.353189 227.15,164.873189 228.63,164.873189 L231.25,164.873189 C232.72,164.873189 233.05,165.373189 233.05,166.353189 L233.05,226.923189 C233.05,241.493189 239.43,249.673189 253.68,249.673189 C265.3,249.673189 276.43,241.673189 281.83,229.673189 L281.83,166.353189 C281.83,165.353189 282.16,164.873189 283.63,164.873189 L286.25,164.873189 C287.73,164.873189 288.05,165.373189 288.05,166.353189 L288.05,252.623189 C288.05,253.623189 287.73,254.093189 286.25,254.093189 L283.63,254.093189 C282.16,254.093189 281.83,253.603189 281.83,252.623189 L281.83,239.523189 C275.78,248.693189 265.83,255.733189 252.83,255.733189 C235.67,255.733189 226.83,244.113189 226.83,228.073189 Z" id="Path"></path>
            <path d="M313.37,286.843189 C313.013093,286.877725 312.659443,286.750846 312.405893,286.497296 C312.152343,286.243746 312.025464,285.890096 312.06,285.533189 L312.06,166.183189 C312.06,164.873189 312.72,164.873189 313.7,164.873189 L316.65,164.873189 C317.3,164.873189 318.28,164.873189 318.28,166.183189 L318.28,178.183189 C322.54,170.333189 331.87,163.293189 345.79,163.293189 C365.27,163.453189 377.22,176.063189 377.22,196.193189 L377.22,222.883189 C377.22,243.013189 365.22,255.623189 345.79,255.783189 C331.87,255.783189 322.54,248.783189 318.28,240.723189 L318.28,285.583189 C318.28,286.583189 317.79,286.893189 316.81,286.893189 L313.37,286.843189 Z M371,222.503189 L371,196.503189 C371,178.163189 360.69,169.503189 345.46,169.323189 C331.71,169.323189 318.28,178.493189 318.28,196.663189 L318.28,222.373189 C318.28,240.543189 331.71,249.703189 345.46,249.703189 C360.69,249.513189 371,240.833189 371,222.503189 Z" id="Shape"></path>
            <path d="M695.49,52.9531891 C691.407566,46.1906781 684.084229,42.0573504 676.185,42.0573504 C668.285771,42.0573504 660.962434,46.1906781 656.88,52.9531891 L590.64,159.273189 L581.92,173.063189 C542.98,234.693189 524.92,263.223189 511.08,276.293189 L760.62,276.293189 C774.800644,276.293189 787.882752,268.657844 794.854434,256.309309 C801.826116,243.960774 801.606606,228.814503 794.28,216.673189 L695.49,52.9531891 Z" id="Path"></path>
            <path d="M458.29,262.583189 C463.027957,271.100773 472.033543,276.356908 481.78,276.293762 C503.95,276.293762 509.15,268.063189 572.78,167.293189 L579.67,156.393189 C565.57,133.753189 555.67,116.943189 555.55,116.773189 C552.863866,112.331397 548.050842,109.617354 542.86,109.617354 C537.669158,109.617354 532.856134,112.331397 530.17,116.773189 L458.69,235.383189 C453.597367,243.695875 453.444007,254.124347 458.29,262.583189 Z" id="Path"></path>
        </g>
    </g>
</svg>

<svg xmlns="http://www.w3.org/2000/svg" id="Layer_1" data-name="Layer 1" viewBox="0 0 800 288.46"><defs><style>.cls-1{fill:#fff;}</style></defs><path class="cls-1" d="M115.25,8.19V122.62a2,2,0,0,1-2.29,2.29H98.22a2,2,0,0,1-2.12-2.29V57.79c0-9.17.65-23.41,1.31-32.42h-.66L70.56,122c-.49,2-1.48,3-3.6,3H52.88c-2.13,0-3.11-1.15-3.6-3L22.76,25.37h-.5c.66,8.85,1.48,23.25,1.48,32.42v64.83a2.07,2.07,0,0,1-2.29,2.29H6.88a2.11,2.11,0,0,1-2.13-2.29V8.19A2.77,2.77,0,0,1,7.86,5.07h23.9A3.46,3.46,0,0,1,35.52,8L51.73,67c3.6,13.75,6.22,23.24,8.35,35.19h.49c2.13-12,4.42-21.61,8.19-35.36L85,8.19c.5-2.13,1.64-3.12,3.61-3.12h23.57A2.85,2.85,0,0,1,115.25,8.19Z"/><path class="cls-1" d="M204,62.54v60.08a2.07,2.07,0,0,1-2.3,2.29h-14.4a2.07,2.07,0,0,1-2.29-2.29V112c-5.57,9-14.74,14.73-25.87,14.73-17,0-27.83-11.13-27.83-27.34,0-16.37,10.8-25.87,34.38-27.5a141.5,141.5,0,0,1,18.5-.17V63.36c0-10.15-5.57-14.25-14.9-14.25s-12.77,3.44-15.06,9.82c-.66,1.81-1.31,2.13-3.11,1.64L136.92,57c-1.48-.49-2-1.31-1.48-2.62,2.62-12.77,14.24-21.61,34.71-21.61C191.27,32.74,204,42.73,204,62.54ZM184.23,95.77V84.64a143.06,143.06,0,0,0-16.86.32c-10.65,1.15-16.7,4.75-16.7,13.26,0,7.37,5.07,12.12,13.75,12.12C173.59,110.34,180.63,104.94,184.23,95.77Z"/><path class="cls-1" d="M242.35,67v55.66a2.07,2.07,0,0,1-2.29,2.29H224.51c-1.64,0-2.46-.82-2.46-2.29V36.67a2,2,0,0,1,2.3-2.13h15.22a2,2,0,0,1,2.29,2.13v11c5.57-8,14.74-14.9,27.18-14.9,17.19,0,26.52,12.44,26.52,30.78v59.1a2,2,0,0,1-2.29,2.29H277.71c-1.63,0-2.45-.82-2.45-2.29V67c0-9.83-4.58-15.72-13.75-15.72C252.83,51.24,245.63,57.63,242.35,67Z"/><path class="cls-1" d="M341.09,14.57V35.2h18c1.31,0,2.13.82,2.13,2.45V49.44c0,1.64-.82,2.29-2.13,2.29h-18V97.24c0,6.55,3.6,9.83,11,9.83h6.88a2,2,0,0,1,2.29,2.29v13.26a2,2,0,0,1-2.29,2.29H348.79c-18.34,0-27.51-9.82-27.51-24.88V51.73H310a2,2,0,0,1-2.29-2.29V37.65c0-1.63.81-2.45,2.29-2.45h11.46V14.57a2.15,2.15,0,0,1,2.29-2.29H338.8A2.06,2.06,0,0,1,341.09,14.57Z"/><path class="cls-1" d="M391.76,86v5.24c0,11.62,6.05,18.82,19,19,12.11,0,15.88-4.75,19-10.81,1.31-2.13,2.13-2.45,4.25-1.47l10.32,5.24c2.29,1.14,2.45,2.45,1.47,4.42-5.4,12-18,19.15-35.2,19.15-25,0-38.3-14.9-38.3-35.85V68.59c0-20.46,12.76-35.85,38-35.85,24.22,0,36.5,15.39,36.5,35.53V82c0,2.62-1,3.93-4.09,3.93Zm0-18.17v4.74H428.1V67.78c0-11.14-6.22-18.5-18.17-18.5S391.76,56.64,391.76,67.78Z"/><path class="cls-1" d="M482.67,2.29V122.62a2.07,2.07,0,0,1-2.29,2.29H464.83c-1.64,0-2.46-.82-2.46-2.29V2.29c0-1.47.82-2.29,2.46-2.29h15.55A2.07,2.07,0,0,1,482.67,2.29Z"/><path class="cls-1" d="M71.05,170.92H52.88C59.1,175,64.34,183.2,64.34,195.64c0,18.34-11.3,29.63-30.62,29.63H23.41c-7.37,0-10.64,3.77-10.64,7.86s3.27,7.69,10.64,7.69H44c20.95,0,28.48,10.81,28.48,22.6,0,13.75-10.47,25-36.67,25C10.31,288.46,0,277.82,0,264.07c0-8.51,3.93-16.37,12.61-20.3A13.78,13.78,0,0,1,6.71,233c0-5.08,3.77-10,9.5-11.79C7.53,216.27,2.78,207.1,2.78,195c0-18.83,11.46-30.13,30.78-30.13H71.05c1,0,1.47.33,1.47,1.8v2.46C72.52,170.59,72,170.92,71.05,170.92Zm-43.71,76c-16.54,0-21.12,8-21.12,16.54,0,11.78,9,19,29.47,19,21.12,0,30.61-7.7,30.61-19.48,0-8.19-4.58-16.05-22.26-16.05Zm6.22-76C18.17,170.92,9,179.27,9,194.82c0,15.39,8.84,24.4,25,24.4,14.57,0,24.07-7.21,24.07-23.58C58.12,180.58,50.09,170.92,33.56,170.92Z"/><path class="cls-1" d="M127.24,165.19v3.44c0,1-.33,1.47-1.64,1.47h-1.31c-13.26,0-22.26,8.84-27.17,19.81v62.87c0,1.3-.82,1.3-1.8,1.3H92.7c-1,0-1.8,0-1.8-1.3V166.17c0-1.31.82-1.31,1.63-1.31h3c.82,0,1.64,0,1.64,1.31L97,181.07a32,32,0,0,1,28.82-17.35C126.75,163.72,127.24,164.05,127.24,165.19Z"/><path class="cls-1" d="M205.34,196.13v26.69c0,20.13-12,32.9-33.23,32.9s-33.23-12.77-33.23-32.9V196.13c0-20.13,12-32.9,33.23-32.9S205.34,176,205.34,196.13Zm-60.24.33v26c0,18.33,10.48,27.17,27,27.17s27-8.84,27-27.17v-26c0-18.34-10.48-27.18-27-27.18S145.1,178.12,145.1,196.46Z"/><path class="cls-1" d="M226.83,228.06V166.34c0-1,.32-1.48,1.8-1.48h2.62c1.47,0,1.8.5,1.8,1.48v60.57c0,14.57,6.38,22.75,20.63,22.75,11.62,0,22.75-8,28.15-20V166.34c0-1,.33-1.48,1.8-1.48h2.62c1.48,0,1.8.5,1.8,1.48v86.27c0,1-.32,1.47-1.8,1.47h-2.62c-1.47,0-1.8-.49-1.8-1.47v-13.1c-6.05,9.17-16,16.21-29,16.21C235.67,255.72,226.83,244.1,226.83,228.06Z"/><path class="cls-1" d="M313.37,286.83a1.2,1.2,0,0,1-1.31-1.31V166.17c0-1.31.66-1.31,1.64-1.31h2.95c.65,0,1.63,0,1.63,1.31v12c4.26-7.85,13.59-14.89,27.51-14.89,19.48.16,31.43,12.77,31.43,32.9v26.69c0,20.13-12,32.74-31.43,32.9-13.92,0-23.25-7-27.51-15.06v44.86c0,1-.49,1.31-1.47,1.31ZM371,222.49v-26c0-18.34-10.31-27-25.54-27.18-13.75,0-27.18,9.17-27.18,27.34v25.71c0,18.17,13.43,27.33,27.18,27.33C360.69,249.5,371,240.82,371,222.49Z"/><path class="cls-1" d="M695.49,52.94a22.55,22.55,0,0,0-38.61,0L590.64,159.26l-8.72,13.79c-38.94,61.63-57,90.16-70.84,103.23H760.62a39.31,39.31,0,0,0,33.66-59.62Z"/><path class="cls-1" d="M458.29,262.57a26.68,26.68,0,0,0,23.49,13.71c22.17,0,27.37-8.23,91-109l6.89-10.9c-14.1-22.64-24-39.45-24.12-39.62a14.83,14.83,0,0,0-25.38,0L458.69,235.37A26.68,26.68,0,0,0,458.29,262.57Z"/></svg>
